assets/symbols/mulberry/stairs.svg

<svg height="850.394" viewBox="0 0 850.394 850.394" width="850.394" xmlns="http://www.w3.org/2000/svg"><path d="m210.95 577.73h429.72v.38h-429.72zm358.88-261.85v86.99h-291.48v-86.99h16.77zm46.7 87.11v86.99h-380.85v-86.99h42.67z" fill="#f6cc4b"/><path d="m667.04 577.73v86.99h-483.37v-86.99h27.28v.38h429.72v-.38zm-371.92-349.98h258.34v86.99h-258.34zm402.55 438.11v86.99h-545.39v-86.99h31.39zm-57-174.74v86.61h-429.72v-86.61h24.73z" fill="#f6cc4b"/><path d="m553.67 227.75v-150.12l194.44 357.43v334.94l-2.11 4-48.33-21.15v-86.99h-514v-1.14h483.37v-86.99h-26.37v-86.61h-404.99v-1.14h380.85v-86.99h-338.18v-.12h291.48v-86.99h-274.71v-1.14h258.34v-86.99z" fill="#ffffc2"/><path d="m295.02 227.75h.1v88.13h-16.77v87.11h-42.67v88.13h-24.73v86.61h-27.28v88.13h-31.39v86.99h1.72v5.15l-53.43 11.16v-334.94l194.45-357.43z" fill="#ffffc2"/><g fill="none"><g stroke="#231f20"><g stroke-width="21"><path d="m697.67 752.85h-545.39v-86.99h545.39zm-57-175.12h26.37v86.99h-483.37v-86.99h27.28z"/><path d="m640.67 577.73v.38h-429.72v-86.99h429.72zm-362.32-174.74h338.18v86.99h-380.85v-86.99zm16.77-87.11h274.71v86.99h-291.48v-86.99zm0-88.13h258.34v86.99h-258.34z"/><path d="m100.57 769.16v-334.94l194.45-357.43v166.03m453.09 527.18v-334.94l-194.44-357.43v166.04" stroke-linecap="round" stroke-linejoin="round"/></g><path d="m100.57 769.16 53.43-11.16m543.67-5.15 48.33 21.15" stroke-width=".25"/></g><path d="m0 0h850.394v850.394h-850.394z"/></g></svg>

<svg xmlns="http://www.w3.org/2000/svg" width="850.394" height="850.394" viewBox="0 0 850.394 850.394" overflow="visible"><path fill="#f6cc4b" d="M210.95 577.73h429.72v.38H210.95zM569.83 315.88v86.99H278.35v-86.99h16.77zM616.53 402.99v86.99H235.68v-86.99h42.67z"/><path fill="#f6cc4b" d="M667.04 577.73v86.99H183.67v-86.99h27.28v.38h429.72v-.38zM295.12 227.75h258.34v86.99H295.12zM697.67 665.86v86.99H152.28v-86.99h31.39zM640.67 491.12v86.61H210.95v-86.61h24.73z"/><path fill="#ffffc2" d="M553.67 227.75V77.63l194.44 357.43V770l-2.11 4-48.33-21.15v-86.99h-514v-1.14h483.37v-86.99h-26.37v-86.61H235.68v-1.14h380.85v-86.99H278.35v-.12h291.48v-86.99H295.12v-1.14h258.34v-86.99z"/><path fill="#ffffc2" d="M295.02 227.75h.1v88.13h-16.77v87.11h-42.67v88.13h-24.73v86.61h-27.28v88.13h-31.39v86.99H154V758l-53.43 11.16V434.22L295.02 76.79z"/><g fill="none" stroke="#231f20"><path stroke-width="21" d="M697.67 752.85H152.28v-86.99h545.39zM640.67 577.73h26.37v86.99H183.67v-86.99h27.28z"/><path stroke-width="21" d="M640.67 577.73v.38H210.95v-86.99h429.72zM278.35 402.99h338.18v86.99H235.68v-86.99zM295.12 315.88h274.71v86.99H278.35v-86.99zM295.12 227.75h258.34v86.99H295.12z"/><path stroke-width="21" stroke-linecap="round" stroke-linejoin="round" d="M100.57 769.16V434.22L295.02 76.79v166.03M748.11 770V435.06L553.67 77.63v166.04"/><path stroke-width=".25" d="M100.57 769.16L154 758M697.67 752.85L746 774"/></g><path fill="none" d="M0 0h850.394v850.394H0z"/></svg>
